findly-builder/apps/searchassist/src/assets/icons/sidemenu/new-icons/synonyms-active.svg

<svg width="12" height="14" viewBox="0 0 12 14" fill="none" xmlns="http://www.w3.org/2000/svg">
<path d="M8.48828 0.0351562L7.78125 0.742188L10.0391 3H0.0117188V4H10.0469L7.78125 6.26562L8.48828 6.96875L11.957 3.50391L8.48828 0.0351562ZM3.51172 7.03516L0.0429688 10.5039L3.51172 13.9688L4.21875 13.2656L1.95312 11H11.9844V10H1.96094L4.21875 7.74219L3.51172 7.03516Z" fill="#0D6EFD"/>
</svg>

<svg width="12" height="14" fill="none" xmlns="http://www.w3.org/2000/svg"><path d="m8.488.035-.707.707L10.04 3H.012v1h10.035L7.78 6.266l.707.703 3.469-3.465L8.488.035Zm-4.976 7L.043 10.504l3.469 3.465.707-.703L1.953 11h10.031v-1H1.961l2.258-2.258-.707-.707Z" fill="#0D6EFD"/></svg>
